X:65
T:triban margam a llangynwyd bach
R:rond
H:cyhoeddwyd gan cadrawd tua 1883
O:traditional welsh
Z:crm
M:2/4
L:1/8
Q:1/8=180
K:Em
G/F/|E>EE/F/G/A/|BEB2-|
B/c/B/A/G>F|E/F/G/A/B>B|
cBA/B/c/d/|cBzB/A/|
GBAc|Bde>z|
B/e/d/f/ed/c/|B>AG>D|EEzB/A/|
G/B/G/E/G/B/G/E/|
B/e/d/f/ed/c/|B/A/G/F/G/F/E/D/|EEz||
